src/assets/snsIcon_f.svg

<svg width="20" height="20" viewBox="0 0 20 20" fill="none" xmlns="http://www.w3.org/2000/svg">
<path fill-rule="evenodd" clip-rule="evenodd" d="M1 9.90279C1 14.3773 4.24975 18.098 8.5 18.8525V12.3523H6.25V9.85254H8.5V7.85229C8.5 5.60229 9.94975 4.35279 12.0002 4.35279C12.6497 4.35279 13.3503 4.45254 13.9998 4.55229V6.85254H12.85C11.7498 6.85254 11.5 7.40229 11.5 8.10279V9.85254H13.9L13.5002 12.3523H11.5V18.8525C15.7502 18.098 19 14.378 19 9.90279C19 4.92504 14.95 0.852539 10 0.852539C5.05 0.852539 1 4.92504 1 9.90279Z" fill="white"/>
</svg>

<svg xmlns="http://www.w3.org/2000/svg" width="20" height="20" fill="none"><path fill="#fff" fill-rule="evenodd" d="M1 9.903c0 4.474 3.25 8.195 7.5 8.95v-6.5H6.25v-2.5H8.5v-2c0-2.25 1.45-3.5 3.5-3.5.65 0 1.35.1 2 .2v2.3h-1.15c-1.1 0-1.35.55-1.35 1.25v1.75h2.4l-.4 2.5h-2v6.5c4.25-.755 7.5-4.475 7.5-8.95 0-4.978-4.05-9.05-9-9.05s-9 4.072-9 9.05Z" clip-rule="evenodd"/></svg>
